**kern	**kern
*part1	*part1
*staff2	*staff1
*I"Piano	*
*I'Pno.	*
*clefF4	*clefG2
*k[]	*k[]
*M4/4	*M4/4
=1	=1
2CC: 2GG#X: 2E:	2.c 2.g#X 2.cc
4DD: 4GGn: 4F#X:	.
4EE 4GG 4D	16r
.	32cLLL
.	32d'JJJ
.	32e'LLL
.	32f#X'
.	32g#X'
.	32a#X'JJJ
=2	=2
2.CC: 2.GG#X: 2.E:	2.c 2.e 2.g#X 2.cc
4r	4r
!!linebreak:original
=3||	=3||
2B	2d 2f 2b
4E	4e 4g 4b
4F	4c 4f 4a
=4	=4
2.BB 2.F	2.d 2.f 2.b
4r	4r
!!linebreak:original
=5||	=5||
*k[f#]	*k[f#]
[2EE [2BB	4r
.	[8eL 8g
.	8eJ] 8f# 8a
=6	=6
*^	*^
4EE] 4BB]	4r	4.b	2e 2g
4DD	4r	.	.
.	.	8cc	.
*	*	*v	*v
4DD: 4E:	4r	4A 4c 4g
(8DL	4DD	4A 4d 4f#
8CJ)	.	.
*v	*v	*
=7	=7
2EE 2BB	2G#X 2d [2e
2AAA 2AA	2Gn 2c#X 2e]
=8	=8
1EEE 1EE	1G 1B 1e
!!linebreak:original
*clefG2	*
=9	=9
8eL 8g	1r
8f# 8a	.
8d#X 8f#	.
8eJ 8g	.
8aL 8cc	.
8gJ 8b	.
4g 4b	.
!!linebreak:original
*clefF4	*
=10||	=10||
*k[]	*k[]
2C 2G	2g 2cc 2ee
2E 2B	2g#X 2b 2ee
=11	=11
4F 4c	4a 4cc 4ff
4G 4d	4g 4b 4dd
2C 2c	2g 2cc 2ee
=12	=12
4FF	4A 4c 4a
4GG	4B 4d 4g
2C	2c 2e
=13	=13
4F 4A	4f 4cc
4G 4B	4f 4dd
2C 2c	2e 2ee
=14	=14
4c 4e	1r
4G 4B	.
2C 2c	.
=15	=15
1r	1r
=16	=16
1r	1r
=17	=17
1r	1r
=18	=18
1r	1r
=19	=19
1r	1r
==	==
*-	*-
!!!system-decoration: {(s1,s2)}
